X:3322
L:1/8
Q:1/8=180
M:4/4
K:C
 C |[K:A]"^or Trumpet Tune." E2 | C2 E2 A2 E2 | (A>GA>B c2) A2 | d2 c2 B2 A2 |"^+" B6 | e2 | 
 c2 d2 A2 E2 | (A>GA>B"^+" c2) e | c2 d2 A2 E2 | (B>AB>c"^+" d2) c2 | f2 e2 d2 c2 || e2 | 
 (cA) (ce) G2 F2 | E4 z2 E2 | A2 A2 A3 B | c2 c2 c3 B | c3 B (ce) (cA) | B2 B2"^+" B3 e | 
 c3 d A2 E2 | (B>AB) c"^+" d2 z B | c2 e A2 (fed) | c2 (BA) A3 |]

